places/22/folder-extension.svg

<?xml version="1.0" encoding="UTF-8" standalone="no"?>
<svg
   viewBox="0 0 22 22"
   version="1.1"
   id="svg6"
   xmlns="http://www.w3.org/2000/svg"
   xmlns:svg="http://www.w3.org/2000/svg">
  <defs
     id="defs3051">
    <style type="text/css" id="current-color-scheme"> .ColorScheme-Text { color:#eff0f1; } </style>
  </defs>
  <path
     style="fill:currentColor;fill-opacity:1"
     d="M 5,4 V 5 H 3 C 3,5 3,15.05414 3,16.02707 3,17 4,18 5,18 c 1,0 11,0 12,0 1,0 2,-1 2,-1.97293 C 19,15.05414 19,5 19,5 H 17 V 4 H 12 V 5 H 10 V 4 Z m 1,1 h 3 v 1 h 4 V 5 h 3 v 1 h 2 v 9.464564 C 18,16.437494 17.504081,17 16.504081,17 H 5.4986518 C 4.4986518,17 4,16.437494 4,15.464564 V 6 h 2 z"
     class="ColorScheme-Text"
     id="path4" />
</svg>

<?xml version="1.0" encoding="UTF-8" standalone="no"?>
<svg
   viewBox="0 0 22 22"
   version="1.1"
   id="svg6"
   sodipodi:docname="folder-extension.svg"
   inkscape:version="1.1.1 (3bf5ae0d25, 2021-09-20)"
   xmlns:inkscape="http://www.inkscape.org/namespaces/inkscape"
   xmlns:sodipodi="http://sodipodi.sourceforge.net/DTD/sodipodi-0.dtd"
   xmlns="http://www.w3.org/2000/svg"
   xmlns:svg="http://www.w3.org/2000/svg">
  <sodipodi:namedview
     id="namedview8"
     pagecolor="#ffffff"
     bordercolor="#666666"
     borderopacity="1.0"
     inkscape:pageshadow="2"
     inkscape:pageopacity="0.0"
     inkscape:pagecheckerboard="0"
     showgrid="false"
     inkscape:zoom="28.545455"
     inkscape:cx="11"
     inkscape:cy="11"
     inkscape:window-width="1920"
     inkscape:window-height="1013"
     inkscape:window-x="0"
     inkscape:window-y="0"
     inkscape:window-maximized="1"
     inkscape:current-layer="svg6" />
  <defs
     id="defs3051">
    <style
       type="text/css"
       id="current-color-scheme">
      .ColorScheme-Text {
        color:#232629
      }
      </style>
  </defs>
  <path
     style="fill:#eff0f1;fill-opacity:1"
     d="M 5 4 L 5 5 L 3 5 L 3 18 L 19 18 L 19 5 L 17 5 L 17 4 L 12 4 L 12 5 L 10 5 L 10 4 L 5 4 z M 6 5 L 9 5 L 9 6 L 13 6 L 13 5 L 16 5 L 16 6 L 18 6 L 18 17 L 4 17 L 4 6 L 6 6 L 6 5 z "
     class="ColorScheme-Text"
     id="path4" />
</svg>
